konami/_inc/system.svg

<svg xmlns="http://www.w3.org/2000/svg"><g clip-rule="evenodd" fill="#fff" fill-rule="evenodd"><path d="m0 78.873c14.724 1.665 29.445 3.333 37.005 1.059 7.557-2.274 7.953-8.49 8.349-14.706 1.443-4.503 3.57-9.015 6.813-13.533 1.089-1.557 2.349-2.991 3.753-4.269 1.404-1.281 2.952-2.403 4.605-3.342s3.417-1.698 5.235-2.253l6.969-1.338 7.029-.981c2.982-.414 6.018-1.335 8.952-2.865 1.398-.729 2.733-1.569 4.251-2.784 1.521-1.218 3.222-2.805 4.734-4.551 1.515-1.752 2.838-3.663 3.957-5.685 1.116-2.028 2.022-4.167 2.7-6.375 1.77-4.902 3.426-9.822 4.971-14.757-12.801-3.21-27.867-3.231-35.775-.579s-8.664 7.974-9.39 11.601c-.729 3.624-1.425 5.55-2.22 7.44-.792 1.887-1.68 3.741-2.613 5.382-.93 1.644-1.905 3.084-3.027 4.401-1.119 1.314-2.388 2.511-3.762 3.561-1.443.978-2.889 1.956-4.38 2.679-2.964 1.461-6.117 2.022-9.207 2.904-4.368.813-8.826 1.353-13.206 2.634-2.169.627-4.263 1.515-6.222 2.637-1.956 1.119-3.774 2.481-5.406 4.035-1.629 1.554-3.066 3.306-4.275 5.202-.708 1.098-1.416 2.196-2.298 3.936-.885 1.74-1.944 4.122-2.997 6.504-1.758 4.644-3.27 9.327-4.545 14.043z"/><path d="m27.546 116.922c14.721 1.665 29.445 3.333 37.005 1.059 7.557-2.274 7.953-8.487 8.349-14.706 1.443-4.503 3.573-9.018 6.816-13.536 1.086-1.554 2.346-2.988 3.753-4.266 1.401-1.278 2.952-2.4 4.605-3.342 1.656-.942 3.414-1.698 5.235-2.253l6.969-1.338 7.029-.984c2.979-.408 6.018-1.332 8.952-2.859 1.395-.729 2.73-1.569 4.248-2.787 1.518-1.215 3.222-2.805 4.737-4.554 1.512-1.749 2.838-3.663 3.954-5.685 1.116-2.025 2.022-4.164 2.703-6.372 1.767-4.902 3.423-9.822 4.968-14.757-12.801-3.21-27.864-3.231-35.775-.576-7.911 2.649-8.667 7.974-9.393 11.598s-1.425 5.55-2.217 7.437c-.792 1.89-1.68 3.741-2.613 5.385-.93 1.644-1.908 3.078-3.027 4.398-1.119 1.314-2.388 2.511-3.762 3.564-1.443.978-2.889 1.953-4.38 2.676-2.964 1.464-6.117 2.022-9.207 2.904-4.371.816-8.826 1.356-13.209 2.634-2.169.63-4.263 1.515-6.219 2.637s-3.777 2.481-5.406 4.038c-3.675 3.456-6.09 7.959-8.049 12.042-2.592 5.835-4.446 11.712-6.066 17.643z"/><path d="m151.41 98.544 20.241.009 15.687-40.356 10.392 40.347h23.739l-10.167-40.455 36.339-34.638h-24.285l-34.473 31.221 11.118-31.215-20.541-.006z"/><path d="m304.179 36.174c-.708-2.004-1.758-3.894-3.069-5.583-1.314-1.686-2.892-3.171-4.665-4.371-1.77-1.2-3.735-2.112-5.982-2.835-4.575-1.449-9.969-2.115-15.042-2.01-2.577.054-5.145.303-8.184.885-3.039.579-6.546 1.494-9.837 2.916-3.288 1.422-6.369 3.354-9.075 5.697-2.706 2.337-5.046 5.088-6.768 7.482-1.722 2.391-2.832 4.422-3.894 6.474-1.059 2.052-2.076 4.119-3.006 6.228-1.791 4.167-3.45 8.205-4.746 12.117-.615 1.941-1.095 3.924-1.443 5.931-.348 2.004-.561 4.032-.663 5.556-.105 1.521-.102 2.535-.045 3.549.051 1.011.15 2.022.282 3.027.129 1.014.291 2.022.858 3.642.567 1.623 1.536 3.849 2.898 5.829 1.362 1.977 3.114 3.696 5.112 5.052 2.001 1.356 4.245 2.346 6.801 3.066 5.178 1.437 11.265 1.863 16.968 1.524 2.889-.177 5.763-.564 8.91-1.365 3.147-.804 6.561-2.031 9.705-3.756 3.147-1.725 6.021-3.951 8.472-6.555 2.451-2.601 4.482-5.586 6.261-8.859s3.309-6.831 4.767-10.413c1.452-3.585 2.835-7.191 3.795-9.87s1.5-4.428 1.908-6.21c.411-1.782.693-3.591.858-5.415.336-3.597.225-7.68-1.176-11.733zm-19.815 11.157c-1.098 4.086-2.196 8.175-3.528 12.189-1.329 4.014-2.889 7.95-4.449 11.886-1.14 2.7-2.706 5.451-4.725 7.983-1.341 1.68-2.73 2.847-4.26 3.714-1.755.996-3.588 1.539-5.379 1.764-2.727.339-5.52-.066-7.716-1.068-1.2-.555-2.427-1.392-3.417-2.463-1.503-1.662-1.983-3.396-2.079-5.055-.09-1.884.132-3.762.606-5.583 2.241-8.841 5.562-17.634 10.197-26.298.63-1.254 1.443-2.424 2.403-3.453s2.073-1.923 3.285-2.634c2.493-1.425 5.004-2.058 7.125-2.211 3.18-.162 6.558.114 9.273 2.406.819.708 1.5 1.572 2.001 2.532.501.957.819 2.01.93 3.084.114 1.074.021 2.163-.267 3.207z"/><path d="m315.255 98.553 19.998-56.094 1.821 56.094h29.172l28.029-75.102h-19.086l-19.794 54.612-1.56-54.612h-30.246l-27.495 75.102z"/><path d="m425.745 83.631-.423 14.931h19.647l1.338-75.117h-26.421l-49.326 75.111h20.394l10.188-14.88zm1.917-42.444-1.014 27.321-15.519.039z"/><path d="m510.126 23.466h-33.567l-28.053 75.084h19.125l20.769-55.695-4.32 55.707h20.232l35.64-54.921-20.775 54.915h19.716l28.188-75.084h-33.951l-29.595 48.462z"/><path d="m580.272 23.466-28.137 75.093h19.455l28.41-75.093z"/></g></svg>

<?xml version="1.0" encoding="utf-8"?>
<svg version="1.1" xmlns="http://www.w3.org/2000/svg">
  <g>
    <path fill-rule="evenodd" clip-rule="evenodd" d="M 0 78.873 C 14.724 80.538 29.445 82.206 37.005 79.932 C 44.562 77.658 44.958 71.442 45.354 65.226 C 46.797 60.723 48.924 56.211 52.167 51.693 C 53.256 50.136 54.516 48.702 55.92 47.424 C 57.324 46.143 58.872 45.021 60.525 44.082 C 62.178 43.143 63.942 42.384 65.76 41.829 L 65.76 41.829 L 72.729 40.491 L 79.758 39.51 L 79.758 39.51 C 82.74 39.096 85.776 38.175 88.71 36.645 C 90.108 35.916 91.443 35.076 92.961 33.861 C 94.482 32.643 96.183 31.056 97.695 29.31 C 99.21 27.558 100.533 25.647 101.652 23.625 C 102.768 21.597 103.674 19.458 104.352 17.25 C 106.122 12.348 107.778 7.428 109.323 2.493 C 96.522 -0.717 81.456 -0.738 73.548 1.914 C 65.64 4.566 64.884 9.888 64.158 13.515 C 63.429 17.139 62.733 19.065 61.938 20.955 C 61.146 22.842 60.258 24.696 59.325 26.337 C 58.395 27.981 57.42 29.421 56.298 30.738 C 55.179 32.052 53.91 33.249 52.536 34.299 C 51.093 35.277 49.647 36.255 48.156 36.978 C 45.192 38.439 42.039 39 38.949 39.882 C 34.581 40.695 30.123 41.235 25.743 42.516 C 23.574 43.143 21.48 44.031 19.521 45.153 C 17.565 46.272 15.747 47.634 14.115 49.188 C 12.486 50.742 11.049 52.494 9.84 54.39 C 9.132 55.488 8.424 56.586 7.542 58.326 C 6.657 60.066 5.598 62.448 4.545 64.83 C 2.787 69.474 1.275 74.157 0 78.873 L 0 78.873 Z" style="fill: rgb(255, 255, 255);"/>
    <path fill-rule="evenodd" clip-rule="evenodd" d="M 27.546 116.922 C 42.267 118.587 56.991 120.255 64.551 117.981 C 72.108 115.707 72.504 109.494 72.9 103.275 C 74.343 98.772 76.473 94.257 79.716 89.739 C 80.802 88.185 82.062 86.751 83.469 85.473 C 84.87 84.195 86.421 83.073 88.074 82.131 C 89.73 81.189 91.488 80.433 93.309 79.878 L 93.309 79.878 L 100.278 78.54 L 107.307 77.556 L 107.307 77.556 C 110.286 77.148 113.325 76.224 116.259 74.697 C 117.654 73.968 118.989 73.128 120.507 71.91 C 122.025 70.695 123.729 69.105 125.244 67.356 C 126.756 65.607 128.082 63.693 129.198 61.671 C 130.314 59.646 131.22 57.507 131.901 55.299 C 133.668 50.397 135.324 45.477 136.869 40.542 C 124.068 37.332 109.005 37.311 101.094 39.966 C 93.183 42.615 92.427 47.94 91.701 51.564 C 90.975 55.188 90.276 57.114 89.484 59.001 C 88.692 60.891 87.804 62.742 86.871 64.386 C 85.941 66.03 84.963 67.464 83.844 68.784 C 82.725 70.098 81.456 71.295 80.082 72.348 C 78.639 73.326 77.193 74.301 75.702 75.024 C 72.738 76.488 69.585 77.046 66.495 77.928 C 62.124 78.744 57.669 79.284 53.286 80.562 C 51.117 81.192 49.023 82.077 47.067 83.199 C 45.111 84.321 43.29 85.68 41.661 87.237 C 37.986 90.693 35.571 95.196 33.612 99.279 C 31.02 105.114 29.166 110.991 27.546 116.922 L 27.546 116.922 Z" style="fill: rgb(255, 255, 255);"/>
    <polygon fill-rule="evenodd" clip-rule="evenodd" points="151.41 98.544 171.651 98.553 187.338 58.197 197.73 98.544 221.469 98.544 211.302 58.089 247.641 23.451 223.356 23.451 188.883 54.672 200.001 23.457 179.46 23.451 151.41 98.544" style="fill: rgb(255, 255, 255);"/>
    <path fill-rule="evenodd" clip-rule="evenodd" d="M 304.179 36.174 C 303.471 34.17 302.421 32.28 301.11 30.591 C 299.796 28.905 298.218 27.42 296.445 26.22 C 294.675 25.02 292.71 24.108 290.463 23.385 C 285.888 21.936 280.494 21.27 275.421 21.375 C 272.844 21.429 270.276 21.678 267.237 22.26 C 264.198 22.839 260.691 23.754 257.4 25.176 C 254.112 26.598 251.031 28.53 248.325 30.873 C 245.619 33.21 243.279 35.961 241.557 38.355 C 239.835 40.746 238.725 42.777 237.663 44.829 C 236.604 46.881 235.587 48.948 234.657 51.057 C 232.866 55.224 231.207 59.262 229.911 63.174 C 229.296 65.115 228.816 67.098 228.468 69.105 C 228.12 71.109 227.907 73.137 227.805 74.661 C 227.7 76.182 227.703 77.196 227.76 78.21 C 227.811 79.221 227.91 80.232 228.042 81.237 C 228.171 82.251 228.333 83.259 228.9 84.879 C 229.467 86.502 230.436 88.728 231.798 90.708 C 233.16 92.685 234.912 94.404 236.91 95.76 C 238.911 97.116 241.155 98.106 243.711 98.826 C 248.889 100.263 254.976 100.689 260.679 100.35 C 263.568 100.173 266.442 99.786 269.589 98.985 C 272.736 98.181 276.15 96.954 279.294 95.229 C 282.441 93.504 285.315 91.278 287.766 88.674 C 290.217 86.073 292.248 83.088 294.027 79.815 C 295.806 76.542 297.336 72.984 298.794 69.402 C 300.246 65.817 301.629 62.211 302.589 59.532 C 303.549 56.853 304.089 55.104 304.497 53.322 C 304.908 51.54 305.19 49.731 305.355 47.907 C 305.691 44.31 305.58 40.227 304.179 36.174 L 304.179 36.174 L 304.179 36.174 L 304.179 36.174 Z M 284.364 47.331 C 283.266 51.417 282.168 55.506 280.836 59.52 C 279.507 63.534 277.947 67.47 276.387 71.406 C 275.247 74.106 273.681 76.857 271.662 79.389 C 270.321 81.069 268.932 82.236 267.402 83.103 C 265.647 84.099 263.814 84.642 262.023 84.867 C 259.296 85.206 256.503 84.801 254.307 83.799 C 253.107 83.244 251.88 82.407 250.89 81.336 C 249.387 79.674 248.907 77.94 248.811 76.281 C 248.721 74.397 248.943 72.519 249.417 70.698 C 251.658 61.857 254.979 53.064 259.614 44.4 C 260.244 43.146 261.057 41.976 262.017 40.947 C 262.977 39.918 264.09 39.024 265.302 38.313 C 267.795 36.888 270.306 36.255 272.427 36.102 C 275.607 35.94 278.985 36.216 281.7 38.508 C 282.519 39.216 283.2 40.08 283.701 41.04 C 284.202 41.997 284.52 43.05 284.631 44.124 C 284.745 45.198 284.652 46.287 284.364 47.331 L 284.364 47.331 L 284.364 47.331 L 284.364 47.331 Z" style="fill: rgb(255, 255, 255);"/>
    <polygon fill-rule="evenodd" clip-rule="evenodd" points="315.255 98.553 335.253 42.459 337.074 98.553 366.246 98.553 394.275 23.451 375.189 23.451 355.395 78.063 353.835 23.451 323.589 23.451 296.094 98.553 315.255 98.553" style="fill: rgb(255, 255, 255);"/>
    <path fill-rule="evenodd" clip-rule="evenodd" d="M 425.745 83.631 L 425.322 98.562 L 444.969 98.562 L 446.307 23.445 L 419.886 23.445 L 370.56 98.556 L 390.954 98.556 L 401.142 83.676 L 425.745 83.631 L 425.745 83.631 Z M 427.662 41.187 L 426.648 68.508 L 411.129 68.547 L 427.662 41.187 L 427.662 41.187 Z" style="fill: rgb(255, 255, 255);"/>
    <polygon fill-rule="evenodd" clip-rule="evenodd" points="510.126 23.466 476.559 23.466 448.506 98.55 467.631 98.55 488.4 42.855 484.08 98.562 504.312 98.562 539.952 43.641 519.177 98.556 538.893 98.556 567.081 23.472 533.13 23.472 503.535 71.934 510.126 23.466" style="fill: rgb(255, 255, 255);"/>
    <polygon fill-rule="evenodd" clip-rule="evenodd" points="580.272 23.466 552.135 98.559 571.59 98.559 600 23.466 580.272 23.466" style="fill: rgb(255, 255, 255);"/>
  </g>
</svg>
